src/pos-icons/elevation-rise.svg

<svg height="24" viewBox="0 0 24 24" width="24" xmlns="http://www.w3.org/2000/svg"><path d="m3 21v-3.71l7.78-4.49 3.77 2.2 6.45-3.75v9.75zm18-12.06-6.45 3.73-3.77-2.17-7.78 4.5v-2.21l7.78-4.49 3.77 2.2 6.45-3.75z"/></svg>

<?xml version="1.0" encoding="UTF-8"?><!DOCTYPE svg PUBLIC "-//W3C//DTD SVG 1.1//EN" "http://www.w3.org/Graphics/SVG/1.1/DTD/svg11.dtd"><svg xmlns="http://www.w3.org/2000/svg" xmlns:xlink="http://www.w3.org/1999/xlink" version="1.1" id="mdi-elevation-rise" width="24" height="24" viewBox="0 0 24 24"><path d="M3,21V17.29L10.78,12.8L14.55,15L21,11.25V21H3M21,8.94L14.55,12.67L10.78,10.5L3,15V12.79L10.78,8.3L14.55,10.5L21,6.75V8.94Z" /></svg>
